usr/share/icons/biglinux-icons-material/16/actions/document-swap.svg

<svg version="1.1" viewBox="0 0 16 16" xmlns="http://www.w3.org/2000/svg">
 <defs>
  <style id="current-color-scheme" type="text/css">.ColorScheme-Text {
        color:#363636;
      }</style>
 </defs>
 <path class="ColorScheme-Text" d="m10.172 1.6719-0.70703 0.70703 1.6211 1.6211h-4.0859v1h4.0859l-1.6211 1.6211 0.70703 0.70703 2.8281-2.8281-1.8789-1.8789zm-4.3438 2-2.8281 2.8281 2.8281 2.8281 0.70703-0.70703-1.6211-1.6211h4.0859v-1h-4.0859l1.6211-1.6211z" fill="currentColor"/>
 <path d="m4 1c-1.108 0-2 0.892-2 2v3.5156a1.0001 1.0001 0 0 1 0.29297-0.72266l0.70703-0.70703v-2.0859c0-0.554 0.446-1 1-1h4.541a1.0001 1.0001 0 0 1 0.2168-0.32812l0.67188-0.67188h-5.4297zm-2 5.5156v6.4844c0 1.108 0.892 2 2 2h4 1l5-5v-5.5156a1.0001 1.0001 0 0 1-0.29297 0.72266l-0.70703 0.70703v3.0859h-5v5h-4c-0.554 0-1-0.446-1-1v-5.0859l-0.70703-0.70703a1.0001 1.0001 0 0 1-0.29297-0.69141zm12-2.0312v-1.4844c0-1.108-0.892-2-2-2h-1.0859l0.91406 0.91406 0.085937 0.085938h0.085938c0.554 0 1 0.446 1 1v0.085938l0.70703 0.70703a1.0001 1.0001 0 0 1 0.29297 0.69141zm-5 5.5156h3.5859l-3.5859 3.5859v-3.5859z" style="fill:currentColor" class="ColorScheme-Text"/>
</svg>

<svg xmlns="http://www.w3.org/2000/svg" viewBox="0 0 16 16"><defs><style id="current-color-scheme" type="text/css">.ColorScheme-Text{color:#dedede}</style></defs><path fill="currentColor" d="m10.172 1.672-.707.707L11.086 4H7v1h4.086L9.465 6.621l.707.707L13 4.5l-1.879-1.879zm-4.344 2L3 6.5l2.828 2.828.707-.707L4.915 7H9V6H4.914l1.621-1.621z" class="ColorScheme-Text"/><path d="M4 1c-1.108 0-2 .892-2 2v3.516a1 1 0 0 1 .293-.723L3 5.086V3c0-.554.446-1 1-1h4.541a1 1 0 0 1 .217-.328L9.43 1H4zM2 6.516V13c0 1.108.892 2 2 2h5l5-5V4.484a1 1 0 0 1-.293.723L13 5.914V9H8v5H4c-.554 0-1-.446-1-1V7.914l-.707-.707A1 1 0 0 1 2 6.516zm12-2.032V3c0-1.108-.892-2-2-2h-1.086l.914.914.086.086H12c.554 0 1 .446 1 1v.086l.707.707a1 1 0 0 1 .293.691zM9 10h3.586L9 13.586V10z" class="ColorScheme-Text" style="fill:currentColor"/></svg>
